frontend/src/icons/Drone_Icon.svg

<svg width="52.000000" height="52.000000" viewBox="0 0 52 52" fill="none" xmlns="http://www.w3.org/2000/svg" xmlns:xlink="http://www.w3.org/1999/xlink">
	<desc>
			Created with Pixso.
	</desc>
	<defs>
		<clipPath id="clip321_20808">
			<rect id="drone" width="52.000000" height="52.000000" fill="white" fill-opacity="0"/>
		</clipPath>
	</defs>
	<g clip-path="url(#clip321_20808)">
		<mask id="mask_321_20810" fill="white">
			<path id="Union" d="M11.1768 14.3528C11.1768 12.5984 12.5991 11.1763 14.353 11.1763C16.1074 11.1763 17.5298 12.5984 17.5298 14.3528C17.5298 16.1072 16.1074 17.5293 14.353 17.5293C12.5991 17.5293 11.1768 16.1072 11.1768 14.3528Z" clip-rule="evenodd" fill="" fill-opacity="1.000000" fill-rule="evenodd"/>
		</mask>
		<path id="Union" d="M10.1768 14.3528C10.1768 13.7866 10.2861 13.2446 10.5054 12.7268C10.7168 12.2271 11.0151 11.7847 11.3999 11.3994C11.7852 11.0144 12.2275 10.7163 12.7271 10.5049C13.2451 10.2859 13.7871 10.1763 14.353 10.1763C14.9194 10.1763 15.4614 10.2859 15.979 10.5049C16.479 10.7163 16.9214 11.0144 17.3066 11.3994C17.6914 11.7847 17.9897 12.2271 18.2012 12.7268C18.4199 13.2446 18.5298 13.7866 18.5298 14.3528C18.5298 14.9187 18.4199 15.4607 18.2012 15.9788C17.9897 16.4785 17.6914 16.9209 17.3066 17.3059C16.9214 17.6909 16.479 17.9893 15.979 18.2007C15.4614 18.4197 14.9194 18.5293 14.353 18.5293C13.7871 18.5293 13.2451 18.4197 12.7271 18.2007C12.2275 17.9893 11.7852 17.6909 11.3999 17.3059C11.0151 16.9209 10.7168 16.4785 10.5054 15.9788C10.2861 15.4607 10.1768 14.9187 10.1768 14.3528L10.1768 14.3528ZM12.1768 14.3528C12.1768 14.6484 12.2334 14.9307 12.3472 15.1997C12.4575 15.46 12.6133 15.6907 12.8145 15.8918C13.0151 16.0928 13.2461 16.2485 13.5063 16.3586C13.7754 16.4724 14.0576 16.5293 14.353 16.5293C14.6489 16.5293 14.9312 16.4724 15.2002 16.3586C15.4604 16.2485 15.6909 16.0928 15.8921 15.8918C16.0933 15.6907 16.249 15.46 16.3589 15.1997C16.4727 14.9307 16.5298 14.6484 16.5298 14.3528C16.5298 14.0571 16.4727 13.7749 16.3589 13.5059C16.249 13.2456 16.0933 13.0149 15.8921 12.8137C15.6909 12.6125 15.4604 12.457 15.2002 12.3469C14.9312 12.2332 14.6489 12.1763 14.353 12.1763C14.0576 12.1763 13.7754 12.2332 13.5063 12.3469C13.2461 12.457 13.0151 12.6125 12.8145 12.8137C12.6133 13.0149 12.4575 13.2456 12.3472 13.5059C12.2334 13.7749 12.1768 14.0571 12.1768 14.3528L12.1768 14.3528Z" fill="#000000" fill-opacity="1.000000" fill-rule="nonzero"/>
		<mask id="mask_321_20813" fill="white">
			<path id="Union" d="M11.1768 37.6472C11.1768 39.4016 12.5991 40.8237 14.353 40.8237C16.1074 40.8237 17.5298 39.4016 17.5298 37.6472C17.5298 35.8928 16.1074 34.4707 14.353 34.4707C12.5991 34.4707 11.1768 35.8928 11.1768 37.6472Z" clip-rule="evenodd" fill="" fill-opacity="1.000000" fill-rule="evenodd"/>
		</mask>
		<path id="Union" d="M10.1768 37.6472C10.1768 38.2134 10.2861 38.7554 10.5054 39.2732C10.7168 39.7729 11.0151 40.2153 11.3999 40.6006C11.7852 40.9856 12.2275 41.2837 12.7271 41.4951C13.2451 41.7141 13.7871 41.8237 14.353 41.8237C14.9194 41.8237 15.4614 41.7141 15.979 41.4951C16.479 41.2837 16.9214 40.9856 17.3066 40.6006C17.6914 40.2153 17.9897 39.7729 18.2012 39.2732C18.4199 38.7554 18.5298 38.2134 18.5298 37.6472C18.5298 37.0813 18.4199 36.5393 18.2012 36.0212C17.9897 35.5215 17.6914 35.0791 17.3066 34.6941C16.9214 34.3091 16.479 34.0107 15.979 33.7993C15.4614 33.5803 14.9194 33.4707 14.353 33.4707C13.7871 33.4707 13.2451 33.5803 12.7271 33.7993C12.2275 34.0107 11.7852 34.3091 11.3999 34.6941C11.0151 35.0791 10.7168 35.5215 10.5054 36.0212C10.2861 36.5393 10.1768 37.0813 10.1768 37.6472L10.1768 37.6472ZM12.1768 37.6472C12.1768 37.3516 12.2334 37.0693 12.3472 36.8003C12.4575 36.54 12.6133 36.3093 12.8145 36.1082C13.0151 35.9072 13.2461 35.7515 13.5063 35.6414C13.7754 35.5276 14.0576 35.4707 14.353 35.4707C14.6489 35.4707 14.9312 35.5276 15.2002 35.6414C15.4604 35.7515 15.6909 35.9072 15.8921 36.1082C16.0933 36.3093 16.249 36.54 16.3589 36.8003C16.4727 37.0693 16.5298 37.3516 16.5298 37.6472C16.5298 37.9429 16.4727 38.2251 16.3589 38.4941C16.249 38.7544 16.0933 38.9851 15.8921 39.1863C15.6909 39.3875 15.4604 39.543 15.2002 39.6531C14.9312 39.7668 14.6489 39.8237 14.353 39.8237C14.0576 39.8237 13.7754 39.7668 13.5063 39.6531C13.2461 39.543 13.0151 39.3875 12.8145 39.1863C12.6133 38.9851 12.4575 38.7544 12.3472 38.4941C12.2334 38.2251 12.1768 37.9429 12.1768 37.6472L12.1768 37.6472Z" fill="#000000" fill-opacity="1.000000" fill-rule="nonzero"/>
		<mask id="mask_321_20816" fill="white">
			<path id="Union" d="M40.8232 14.3528C40.8232 12.5984 39.4009 11.1763 37.647 11.1763C35.8926 11.1763 34.4702 12.5984 34.4702 14.3528C34.4702 16.1072 35.8926 17.5293 37.647 17.5293C39.4009 17.5293 40.8232 16.1072 40.8232 14.3528Z" clip-rule="evenodd" fill="" fill-opacity="1.000000" fill-rule="evenodd"/>
		</mask>
		<path id="Union" d="M41.8232 14.3528C41.8232 13.7866 41.7139 13.2446 41.4946 12.7268C41.2832 12.2271 40.9849 11.7847 40.6001 11.3994C40.2148 11.0144 39.7725 10.7163 39.2729 10.5049C38.7549 10.2859 38.2129 10.1763 37.647 10.1763C37.0806 10.1763 36.5386 10.2859 36.021 10.5049C35.521 10.7163 35.0786 11.0144 34.6934 11.3994C34.3086 11.7847 34.0103 12.2271 33.7988 12.7268C33.5801 13.2446 33.4702 13.7866 33.4702 14.3528C33.4702 14.9187 33.5801 15.4607 33.7988 15.9788C34.0103 16.4785 34.3086 16.9209 34.6934 17.3059C35.0786 17.6909 35.521 17.9893 36.021 18.2007C36.5386 18.4197 37.0806 18.5293 37.647 18.5293C38.2129 18.5293 38.7549 18.4197 39.2729 18.2007C39.7725 17.9893 40.2148 17.6909 40.6001 17.3059C40.9849 16.9209 41.2832 16.4785 41.4946 15.9788C41.7139 15.4607 41.8232 14.9187 41.8232 14.3528L41.8232 14.3528ZM39.8232 14.3528C39.8232 14.6484 39.7666 14.9307 39.6528 15.1997C39.5425 15.46 39.3867 15.6907 39.1855 15.8918C38.9849 16.0928 38.7539 16.2485 38.4937 16.3586C38.2246 16.4724 37.9424 16.5293 37.647 16.5293C37.3511 16.5293 37.0688 16.4724 36.7998 16.3586C36.5396 16.2485 36.3091 16.0928 36.1079 15.8918C35.9067 15.6907 35.751 15.46 35.6411 15.1997C35.5273 14.9307 35.4702 14.6484 35.4702 14.3528C35.4702 14.0571 35.5273 13.7749 35.6411 13.5059C35.751 13.2456 35.9067 13.0149 36.1079 12.8137C36.3091 12.6125 36.5396 12.457 36.7998 12.3469C37.0688 12.2332 37.3511 12.1763 37.647 12.1763C37.9424 12.1763 38.2246 12.2332 38.4937 12.3469C38.7539 12.457 38.9849 12.6125 39.1855 12.8137C39.3867 13.0149 39.5425 13.2456 39.6528 13.5059C39.7666 13.7749 39.8232 14.0571 39.8232 14.3528L39.8232 14.3528Z" fill="#000000" fill-opacity="1.000000" fill-rule="nonzero"/>
		<mask id="mask_321_20819" fill="white">
			<path id="Union" d="M40.8232 37.6472C40.8232 39.4016 39.4009 40.8237 37.647 40.8237C35.8926 40.8237 34.4702 39.4016 34.4702 37.6472C34.4702 35.8928 35.8926 34.4707 37.647 34.4707C39.4009 34.4707 40.8232 35.8928 40.8232 37.6472Z" clip-rule="evenodd" fill="" fill-opacity="1.000000" fill-rule="evenodd"/>
		</mask>
		<path id="Union" d="M41.8232 37.6472C41.8232 38.2134 41.7139 38.7554 41.4946 39.2732C41.2832 39.7729 40.9849 40.2153 40.6001 40.6006C40.2148 40.9856 39.7725 41.2837 39.2729 41.4951C38.7549 41.7141 38.2129 41.8237 37.647 41.8237C37.0806 41.8237 36.5386 41.7141 36.021 41.4951C35.521 41.2837 35.0786 40.9856 34.6934 40.6006C34.3086 40.2153 34.0103 39.7729 33.7988 39.2732C33.5801 38.7554 33.4702 38.2134 33.4702 37.6472C33.4702 37.0813 33.5801 36.5393 33.7988 36.0212C34.0103 35.5215 34.3086 35.0791 34.6934 34.6941C35.0786 34.3091 35.521 34.0107 36.021 33.7993C36.5386 33.5803 37.0806 33.4707 37.647 33.4707C38.2129 33.4707 38.7549 33.5803 39.2729 33.7993C39.7725 34.0107 40.2148 34.3091 40.6001 34.6941C40.9849 35.0791 41.2832 35.5215 41.4946 36.0212C41.7139 36.5393 41.8232 37.0813 41.8232 37.6472L41.8232 37.6472ZM39.8232 37.6472C39.8232 37.3516 39.7666 37.0693 39.6528 36.8003C39.5425 36.54 39.3867 36.3093 39.1855 36.1082C38.9849 35.9072 38.7539 35.7515 38.4937 35.6414C38.2246 35.5276 37.9424 35.4707 37.647 35.4707C37.3511 35.4707 37.0688 35.5276 36.7998 35.6414C36.5396 35.7515 36.3091 35.9072 36.1079 36.1082C35.9067 36.3093 35.751 36.54 35.6411 36.8003C35.5273 37.0693 35.4702 37.3516 35.4702 37.6472C35.4702 37.9429 35.5273 38.2251 35.6411 38.4941C35.751 38.7544 35.9067 38.9851 36.1079 39.1863C36.3091 39.3875 36.5396 39.543 36.7998 39.6531C37.0688 39.7668 37.3511 39.8237 37.647 39.8237C37.9424 39.8237 38.2246 39.7668 38.4937 39.6531C38.7539 39.543 38.9849 39.3875 39.1855 39.1863C39.3867 38.9851 39.5425 38.7544 39.6528 38.4941C39.7666 38.2251 39.8232 37.9429 39.8232 37.6472L39.8232 37.6472Z" fill="#000000" fill-opacity="1.000000" fill-rule="nonzero"/>
		<path id="Ellipse 72" d="M31.59 12.42C31.93 11.34 32.56 10.37 33.4 9.62C34.24 8.86 35.27 8.34 36.38 8.12C37.49 7.9 38.64 7.97 39.71 8.34C40.78 8.71 41.74 9.36 42.47 10.22C43.21 11.08 43.7 12.12 43.9 13.24C44.1 14.35 43.99 15.5 43.6 16.56C43.2 17.62 42.53 18.56 41.65 19.27C40.77 19.99 39.72 20.46 38.6 20.63" stroke="#000000" stroke-opacity="1.000000" stroke-width="2.000000"/>
		<path id="Ellipse 73" d="M38.22 31.32C39.33 31.42 40.4 31.81 41.31 32.46C42.23 33.1 42.95 33.98 43.42 35C43.89 36.02 44.07 37.14 43.97 38.26C43.86 39.37 43.46 40.44 42.8 41.35C42.15 42.26 41.27 42.98 40.25 43.44C39.23 43.9 38.1 44.08 36.99 43.96C35.87 43.85 34.81 43.44 33.91 42.78C33 42.12 32.29 41.24 31.83 40.21" stroke="#000000" stroke-opacity="1.000000" stroke-width="2.000000"/>
		<path id="Ellipse 74" d="M20.17 40.19C19.73 41.19 19.04 42.06 18.18 42.71C17.31 43.37 16.28 43.79 15.2 43.94C14.12 44.08 13.02 43.95 12.01 43.55C11 43.15 10.1 42.49 9.42 41.65C8.73 40.8 8.27 39.79 8.09 38.72C7.9 37.65 8 36.54 8.36 35.52C8.73 34.49 9.35 33.57 10.17 32.86C10.99 32.14 11.98 31.65 13.05 31.42" stroke="#000000" stroke-opacity="1.000000" stroke-width="2.000000"/>
		<path id="Ellipse 75" d="M13.7 20.67C12.58 20.55 11.51 20.14 10.6 19.48C9.69 18.81 8.97 17.92 8.52 16.89C8.07 15.86 7.91 14.72 8.04 13.61C8.17 12.49 8.6 11.42 9.27 10.52C9.95 9.63 10.86 8.92 11.89 8.49C12.93 8.05 14.07 7.9 15.18 8.05C16.3 8.2 17.36 8.64 18.25 9.33C19.14 10.02 19.82 10.94 20.24 11.98" stroke="#000000" stroke-opacity="1.000000" stroke-width="2.000000"/>
		<path id="Vector 89" d="M16.47 16.47L22.29 16.47" stroke="#000000" stroke-opacity="1.000000" stroke-width="2.000000"/>
		<path id="Vector 91" d="M16.47 36.08L21.76 36.08" stroke="#000000" stroke-opacity="1.000000" stroke-width="2.000000"/>
		<path id="Vector 90" d="M29.17 21.04L30.68 15.42" stroke="#000000" stroke-opacity="1.000000" stroke-width="2.000000"/>
		<path id="Vector 92" d="M29.17 31.47L30.68 37.14" stroke="#000000" stroke-opacity="1.000000" stroke-width="2.000000"/>
		<path id="Rectangle 18163" d="M21.76 16.47L30.23 16.47L32.35 26L30.23 35.52L21.76 35.52L19.64 26L21.76 16.47Z" fill="#000000" fill-opacity="1.000000" fill-rule="nonzero"/>
	</g>
</svg>

<svg width="52" height="52" fill="none" xmlns="http://www.w3.org/2000/svg"><defs><clipPath id="a"><path fill="#fff" fill-opacity="0" d="M0 0h52v52H0z"/></clipPath></defs><g clip-path="url(#a)"><path d="M10.177 14.353A4.15 4.15 0 0 1 11.4 11.4a4.147 4.147 0 0 1 1.327-.895 4.134 4.134 0 0 1 1.626-.329c.566 0 1.108.11 1.626.329.5.211.942.51 1.328.894a4.152 4.152 0 0 1 1.223 2.954 4.14 4.14 0 0 1-.329 1.626c-.211.5-.51.942-.894 1.327a4.144 4.144 0 0 1-1.328.895 4.131 4.131 0 0 1-1.626.328 4.148 4.148 0 0 1-2.953-1.223 4.146 4.146 0 0 1-.895-1.327 4.13 4.13 0 0 1-.328-1.626Zm2 0a2.151 2.151 0 0 0 .638 1.539 2.156 2.156 0 0 0 1.538.637 2.152 2.152 0 0 0 1.54-.637 2.156 2.156 0 0 0 .637-1.54 2.157 2.157 0 0 0-.638-1.54 2.16 2.16 0 0 0-1.539-.636 2.154 2.154 0 0 0-1.538.638 2.165 2.165 0 0 0-.638 1.539ZM10.177 37.647A4.15 4.15 0 0 0 11.4 40.6c.385.386.827.684 1.327.895.518.22 1.06.329 1.626.329.566 0 1.108-.11 1.626-.329.5-.211.942-.51 1.328-.894a4.152 4.152 0 0 0 1.223-2.954 4.14 4.14 0 0 0-.329-1.626c-.211-.5-.51-.942-.894-1.327a4.144 4.144 0 0 0-1.328-.895 4.131 4.131 0 0 0-1.626-.328 4.148 4.148 0 0 0-2.953 1.223 4.146 4.146 0 0 0-.895 1.327 4.13 4.13 0 0 0-.328 1.626Zm2 0a2.151 2.151 0 0 1 .638-1.539 2.156 2.156 0 0 1 1.538-.637 2.152 2.152 0 0 1 1.54.637 2.156 2.156 0 0 1 .637 1.54 2.157 2.157 0 0 1-.638 1.54 2.16 2.16 0 0 1-1.539.636 2.154 2.154 0 0 1-1.538-.638 2.165 2.165 0 0 1-.638-1.539ZM41.823 14.353A4.15 4.15 0 0 0 40.6 11.4a4.147 4.147 0 0 0-1.327-.895 4.134 4.134 0 0 0-1.626-.329c-.566 0-1.108.11-1.626.329-.5.211-.942.51-1.328.894a4.152 4.152 0 0 0-1.223 2.954c0 .566.11 1.108.329 1.626.211.5.51.942.894 1.327.386.385.828.683 1.328.895.518.219 1.06.328 1.626.328a4.148 4.148 0 0 0 2.953-1.223c.385-.385.683-.828.895-1.327a4.13 4.13 0 0 0 .328-1.626Zm-2 0a2.151 2.151 0 0 1-.638 1.539 2.156 2.156 0 0 1-1.538.637 2.152 2.152 0 0 1-1.54-.637 2.156 2.156 0 0 1-.637-1.54 2.157 2.157 0 0 1 .638-1.54 2.16 2.16 0 0 1 1.539-.636 2.154 2.154 0 0 1 1.538.638 2.165 2.165 0 0 1 .638 1.539ZM41.823 37.647A4.15 4.15 0 0 1 40.6 40.6a4.147 4.147 0 0 1-1.327.895 4.134 4.134 0 0 1-1.626.329c-.566 0-1.108-.11-1.626-.329-.5-.211-.942-.51-1.328-.894a4.152 4.152 0 0 1-1.223-2.954c0-.566.11-1.108.329-1.626.211-.5.51-.942.894-1.327a4.144 4.144 0 0 1 1.328-.895 4.131 4.131 0 0 1 1.626-.328 4.148 4.148 0 0 1 2.953 1.223c.385.385.683.828.895 1.327.219.518.328 1.06.328 1.626Zm-2 0a2.151 2.151 0 0 0-.638-1.539 2.156 2.156 0 0 0-1.538-.637 2.152 2.152 0 0 0-1.54.637 2.156 2.156 0 0 0-.637 1.54 2.157 2.157 0 0 0 .638 1.54 2.16 2.16 0 0 0 1.539.636 2.154 2.154 0 0 0 1.538-.638 2.165 2.165 0 0 0 .638-1.539Z" fill="#000"/><path d="M31.59 12.42c.34-1.08.97-2.05 1.81-2.8.84-.76 1.87-1.28 2.98-1.5a6.345 6.345 0 0 1 6.09 2.1c.74.86 1.23 1.9 1.43 3.02.2 1.11.09 2.26-.3 3.32-.4 1.06-1.07 2-1.95 2.71-.88.72-1.93 1.19-3.05 1.36M38.22 31.32c1.11.1 2.18.49 3.09 1.14.92.64 1.64 1.52 2.11 2.54s.65 2.14.55 3.26a6.328 6.328 0 0 1-1.17 3.09c-.65.91-1.53 1.63-2.55 2.09a6.3 6.3 0 0 1-3.26.52 6.233 6.233 0 0 1-3.08-1.18 6.364 6.364 0 0 1-2.08-2.57M20.17 40.19a6.39 6.39 0 0 1-1.99 2.52c-.87.66-1.9 1.08-2.98 1.23-1.08.14-2.18.01-3.19-.39a6.357 6.357 0 0 1-3.65-8.03 6.386 6.386 0 0 1 4.69-4.1M13.7 20.67a6.452 6.452 0 0 1-3.1-1.19 6.407 6.407 0 0 1-2.08-2.59 6.366 6.366 0 0 1-.48-3.28c.13-1.12.56-2.19 1.23-3.09.68-.89 1.59-1.6 2.62-2.03 1.04-.44 2.18-.59 3.29-.44 1.12.15 2.18.59 3.07 1.28.89.69 1.57 1.61 1.99 2.65M16.47 16.47h5.82M16.47 36.08h5.29M29.17 21.04l1.51-5.62M29.17 31.47l1.51 5.67" stroke="#000" stroke-width="2"/><path d="M21.76 16.47h8.47L32.35 26l-2.12 9.52h-8.47L19.64 26l2.12-9.53Z" fill="#000"/></g></svg>
